X:1
T:Title
%%score { ( 1 3 4 ) | ( 2 5 ) }
L:1/8
Q:1/4=108
M:4/4
K:Eb
V:1 treble nm="Grand Piano"
V:3 treble 
V:4 treble 
V:2 bass 
V:5 bass 
V:1
 E2 G2 G2 F2 | F4[K:bass][K:treble] z4 | [Ge]4 z4 | [EGB]4 [B,EG]4 | %4
w: Thoro~Harris * * *||||
 [CFA]2 [CEA]2 [B,DB]2 [B,FA]2 | [B,G]2 [=B,FG]2 [CEc]2 [CGc]2 | [DFB]2 [B,DF]2 [=A,Fd]3 [A,Ec] | %7
w: |||
 [B,DB]6 z2 | [B,FA]2 [EA]2 [B,DG]2 [A,DF]2 | [A,DF]4 [G,CE]4 | [CEc]2 [B,=Ec]2 [Ff]2 [Fc]2 | %11
w: ||||
 z4 [Fd]4[K:bass] | [Ee]4 [Ed]2[K:bass][K:treble] [Ec]2 | B4 G4 | %14
w: |||
 B2 [A,CA]2[K:bass] [F,C]2 [A,B,D]2 | [E,G,B,E]6 z2 |] %16
w: ||
V:2
 [E,G,B,]2 [E,B,E]2 [E,=A,C]2 [E,A,C]2 | [A,=B,]4 [E,G,_B,]4 | B,2 z2 A,B, z D | E,4 E,2 G,2 | %4
 F,2 F,2 B,,2 D,2 | E,2 D,2 C,2 E,2 | F,2 F,2 F,,3 F,, | B,,6 z2 | D,2 [C,F,]2 B,,2 B,,2 | %9
 =B,,4 C,2 _B,,2 | A,,2 G,,2 [A,,A,]2 [=A,,F,]2 | [B,,A,]4 A,4 | [C,G,]2 G,,2 .[A,,B,]2 .[C,A,]2 | %13
 [E,G,E]4 [=E,B,_D]4 | [=E,,=E,G,_D]2 [F,,F,]2 A,,2 B,,2 | E,,6 z2 |] %16
V:3
 x8 | z2[K:bass] z B,[K:treble] E4 | z2 G,2 [Bd]2 .[CAc]2 | x8 | x8 | x8 | x8 | x8 | x8 | x8 | x8 | %11
 [Fe]4 z2[K:bass] =B,,2 | z2 C2 z[K:bass] B,,[K:treble] z D, | x8 | x4[K:bass] x4 | x8 |] %16
V:4
 x8 | z2[K:bass] D,2[K:treble] z4 | x8 | x8 | x8 | x8 | x8 | x8 | x8 | x8 | x8 | x6[K:bass] x2 | %12
 x5[K:bass] x[K:treble] x2 | x8 | x4[K:bass] x4 | x8 |] %16
V:5
 x8 | E,2 z2 z4 | E,4 E,2 E,2 | x8 | x8 | x8 | x8 | x8 | x8 | x8 | x8 | z4 B,,2 z2 | x8 | x8 | x8 | %15
 x8 |] %16

